; generated by PrusaSlicer 2.9.2 on 2025-12-29 at 19:34:11 UTC


;
;
; 

; external perimeters extrusion width = 0.45mm
; perimeters extrusion width = 0.45mm
; infill extrusion width = 0.45mm
; solid infill extrusion width = 0.45mm
; top infill extrusion width = 0.40mm
; first layer extrusion width = 0.42mm

M73 P0 R77
M73 Q0 S78
M201 X1000 Y1000 Z200 E5000 ; sets maximum accelerations, mm/sec^2
M203 X200 Y200 Z12 E120 ; sets maximum feedrates, mm / sec
M204 S1250 T1250 ; sets acceleration (S) and retract acceleration (R), mm/sec^2
M205 X8.00 Y8.00 Z0.40 E4.50 ; sets the jerk limits, mm/sec
M205 S0 T0 ; sets the minimum extruding and travel feed rate, mm/sec

; printing object core-p1_stencil_jig.stl id:0 copy 0
; stop printing object core-p1_stencil_jig.stl id:0 copy 0

;TYPE:Custom
M862.3 P "MK3S" ; printer model check
M862.1 P0.4 ; nozzle diameter check
M115 U3.14.1 ; tell printer latest fw version
G90 ; use absolute coordinates
M83 ; extruder relative mode
M104 S215 ; set extruder temp
M140 S60 ; set bed temp
M190 S60 ; wait for bed temp
M109 S215 ; wait for extruder temp
G28 W ; home all without mesh bed level
G80 X72.6229 Y52.6229 W104.754 H104.754 ; mesh bed levelling

G1 Z0.2 F720
G1 Y-3 F1000 ; go outside print area
G92 E0
G1 X60 E9 F1000 ; intro line
G1 X100 E12.5 F1000 ; intro line
M73 Q0 S77

G92 E0
M221 S95

; Don't change E values below. Excessive value can damage the printer.
M907 E430 ; set extruder motor current
G21 ; set units to millimeters
G90 ; use absolute coordinates
M83 ; use relative distances for extrusion

M900 K0.05 ; Filament gcode LA 1.5
M900 K30 ; Filament gcode LA 1.0




M107
;LAYER_CHANGE
;Z:0.2
;HEIGHT:0.2
G1 E-.8 F2100
G1 Z.6 F720
G1 X74.612 Y55.253 F10800
G1 Z.2 F720
G1 E.8 F2100
M204 S800
;TYPE:Skirt/Brim
;WIDTH:0.42
G1 F1200
G1 X74.622 Y55.239 E.00054
G1 X75.531 Y54.377 E.03928
G1 X76.575 Y53.686 E.03925
G1 X77.365 Y53.318 E.02733
G1 X78.565 Y52.962 E.03925
G1 X80 Y52.811 E.04524
G1 X170.191 Y52.82 E2.82788
G1 X171.435 Y52.962 E.03926
G1 X172.635 Y53.318 E.03925
G1 X173.755 Y53.877 E.03925
G1 X174.761 Y54.622 E.03925
G1 X175.623 Y55.531 E.03928
G1 X176.314 Y56.575 E.03925
G1 X176.682 Y57.365 E.02733
G1 X177.038 Y58.565 E.03925
G1 X177.18 Y59.809 E.03926
G1 X177.189 Y150 E2.82788
G1 X177.038 Y151.435 E.04524
G1 X176.682 Y152.635 E.03925
G1 X176.123 Y153.755 E.03925
G1 X175.378 Y154.761 E.03925
G1 X174.423 Y155.655 E.04102
G1 X173.425 Y156.314 E.0375
G1 X172.635 Y156.682 E.02733
G1 X171.435 Y157.038 E.03925
G1 X170 Y157.189 E.04524
G1 X80 Y157.189 E2.82189
G1 X78.565 Y157.038 E.04524
G1 X77.365 Y156.682 E.03925
G1 X76.245 Y156.123 E.03925
G1 X75.239 Y155.378 E.03925
G1 X74.377 Y154.469 E.03928
G1 X73.877 Y153.755 E.02733
G1 X73.318 Y152.635 E.03925
G1 X72.962 Y151.435 E.03925
G1 X72.811 Y150 E.04524
G1 X72.811 Y60 E2.82189
G1 X72.962 Y58.565 E.04524
G1 X73.318 Y57.365 E.03925
G1 X73.877 Y56.245 E.03925
G1 X74.576 Y55.301 E.03683
M204 S1000
;WIPE_START
G1 F8640
G1 X74.612 Y55.253 E-.01385
G1 X74.622 Y55.239 E-.00397
G1 X75.531 Y54.377 E-.28926
G1 X76.575 Y53.686 E-.28908
G1 X77.365 Y53.318 E-.20123
G1 X77.376 Y53.315 E-.00261
;WIPE_END
G1 Z.6 F720
; printing object core-p1_stencil_jig.stl id:0 copy 0
G1 X138.26 Y118.258 F10800
G1 Z.2 F720
G1 E.8 F2100
M204 S800
;TYPE:Perimeter
;WIDTH:0.419999
G1 F1200
G1 X138.168 Y118.353 E.00415
G1 X137.871 Y118.437 E.00968
G1 X112.129 Y118.437 E.80712
G1 X111.852 Y118.365 E.00897
G1 X111.647 Y118.168 E.00891
G1 X111.563 Y117.871 E.00968
G1 X111.568 Y92.055 E.80944
G1 X111.672 Y91.794 E.00881
G1 X111.893 Y91.614 E.00894
G1 X112.129 Y91.563 E.00757
G1 X137.871 Y91.563 E.80712
G1 X138.148 Y91.635 E.00897
G1 X138.353 Y91.832 E.00891
G1 X138.437 Y92.129 E.00968
G1 X138.437 Y117.871 E.80712
G1 X138.365 Y118.148 E.00897
G1 X138.301 Y118.214 E.00288
M204 S1000
G1 X138.013 Y117.974 F10800
M204 S800
;TYPE:External perimeter
G1 F1200
G1 X137.994 Y118.014 E.00139
G1 X137.871 Y118.06 E.00412
G1 X112.129 Y118.06 E.80712
G1 X111.986 Y117.994 E.00494
G1 X111.94 Y117.871 E.00412
G1 X111.942 Y92.104 E.8079
G1 X112.03 Y91.968 E.00508
G1 X112.129 Y91.94 E.00323
G1 X137.871 Y91.94 E.80712
G1 X138.014 Y92.006 E.00494
G1 X138.06 Y92.129 E.00412
G1 X138.06 Y117.871 E.80712
G1 X138.038 Y117.919 E.00166
M204 S1000
;WIPE_START
G1 F8640
G1 X138.013 Y117.974 E-.01395
G1 X137.994 Y118.014 E-.01023
G1 X137.871 Y118.06 E-.03032
G1 X134.642 Y118.06 E-.7455
;WIPE_END
G1 Z.6 F720
G1 X169.988 Y55.791 F10800
G1 Z.2 F720
G1 E.8 F2100
M204 S800
;TYPE:Perimeter
G1 F1200
G1 X170.013 Y55.791 E.00078
G1 X170.731 Y55.854 E.0226
G1 X171.44 Y56.044 E.02301
G1 X172.105 Y56.354 E.023
G1 X172.706 Y56.775 E.02301
G1 X173.225 Y57.294 E.02301
G1 X173.646 Y57.895 E.02301
G1 X173.956 Y58.56 E.023
G1 X174.146 Y59.269 E.02301
G1 X174.213 Y60.228 E.03014
G1 X174.213 Y149.966 E2.81367
G1 X174.146 Y150.731 E.02408
G1 X173.956 Y151.44 E.02301
G1 X173.646 Y152.105 E.023
G1 X173.225 Y152.706 E.02301
G1 X172.706 Y153.225 E.02301
G1 X172.105 Y153.646 E.02301
G1 X171.44 Y153.956 E.023
G1 X170.731 Y154.146 E.02301
G1 X169.966 Y154.213 E.02408
G1 X80.034 Y154.213 E2.81975
G1 X79.269 Y154.146 E.02408
M73 P1 R77
M73 Q1 S77
G1 X78.56 Y153.956 E.02301
G1 X77.895 Y153.646 E.023
G1 X77.294 Y153.225 E.02301
G1 X76.775 Y152.706 E.02301
G1 X76.354 Y152.105 E.02301
G1 X76.044 Y151.44 E.023
G1 X75.854 Y150.731 E.02301
G1 X75.787 Y149.966 E.02408
G1 X75.787 Y60.034 E2.81975
G1 X75.854 Y59.269 E.02408
M73 P1 R76
G1 X76.044 Y58.56 E.02301
G1 X76.354 Y57.895 E.023
G1 X76.775 Y57.294 E.02301
G1 X77.294 Y56.775 E.02301
G1 X77.895 Y56.354 E.02301
G1 X78.56 Y56.044 E.023
G1 X79.269 Y55.854 E.02301
G1 X80.034 Y55.787 E.02408
G1 X169.928 Y55.791 E2.81856
M204 S1000
G1 X170.021 Y55.414 F10800
M204 S800
;TYPE:External perimeter
G1 F1200
G1 X170.03 Y55.414 E.00028
G1 X170.797 Y55.481 E.02414
G1 X171.569 Y55.688 E.02506
G1 X172.294 Y56.026 E.02508
G1 X172.949 Y56.485 E.02508
G1 X173.515 Y57.051 E.0251
G1 X173.974 Y57.706 E.02508
G1 X174.312 Y58.431 E.02508
G1 X174.519 Y59.203 E.02506
G1 X174.59 Y60.228 E.03222
G1 X174.59 Y149.982 E2.81417
G1 X174.519 Y150.797 E.02565
M73 Q1 S76
G1 X174.312 Y151.569 E.02506
G1 X173.974 Y152.294 E.02508
G1 X173.515 Y152.949 E.02508
G1 X172.949 Y153.515 E.0251
G1 X172.294 Y153.974 E.02508
G1 X171.569 Y154.312 E.02508
G1 X170.797 Y154.519 E.02506
G1 X169.982 Y154.59 E.02565
G1 X80.018 Y154.59 E2.82075
G1 X79.203 Y154.519 E.02565
G1 X78.431 Y154.312 E.02506
G1 X77.706 Y153.974 E.02508
G1 X77.051 Y153.515 E.02508
G1 X76.485 Y152.949 E.0251
G1 X76.026 Y152.294 E.02508
G1 X75.688 Y151.569 E.02508
G1 X75.481 Y150.797 E.02506
G1 X75.41 Y149.982 E.02565
G1 X75.41 Y60.018 E2.82075
G1 X75.481 Y59.203 E.02565
G1 X75.688 Y58.431 E.02506
G1 X76.026 Y57.706 E.02508
G1 X76.485 Y57.051 E.02508
G1 X77.051 Y56.485 E.0251
G1 X77.706 Y56.026 E.02508
G1 X78.431 Y55.688 E.02508
G1 X79.203 Y55.481 E.02506
G1 X80.018 Y55.41 E.02565
G1 X169.961 Y55.414 E2.82009
M204 S1000
;WIPE_START
G1 F8640
G1 X170.021 Y55.414 E-.01385
G1 X170.03 Y55.414 E-.00208
G1 X170.797 Y55.481 E-.17778
G1 X171.569 Y55.688 E-.18455
G1 X172.294 Y56.026 E-.1847
G1 X172.949 Y56.485 E-.18468
G1 X173.109 Y56.645 E-.05236
;WIPE_END
G1 Z.6 F720
G1 X171.893 Y56.442 F10800
G1 Z.2 F720
G1 E.8 F2100
M204 S800
;TYPE:Solid infill
;WIDTH:0.421035
G1 F1200
G1 X172.966 Y57.516 E.04773
G1 X173.351 Y58.065 E.02108
G1 X173.652 Y58.736 E.02312
G1 X171.264 Y56.348 E.10618
G1 X170.672 Y56.19 E.01926
G1 X170.561 Y56.18 E.0035
G1 X173.82 Y59.439 E.14491
G1 X173.871 Y60.025 E.01849
G1 X169.977 Y56.131 E.17314
G1 X169.442 Y56.131 E.01682
G1 X173.874 Y60.562 E.19704
G1 X173.874 Y61.097 E.01682
G1 X168.907 Y56.131 E.22083
G1 X168.372 Y56.131 E.01682
G1 X173.874 Y61.632 E.24462
G1 X173.874 Y62.166 E.01679
G1 X167.838 Y56.131 E.26836
G1 X167.303 Y56.13 E.01682
G1 X173.874 Y62.701 E.29217
G1 X173.874 Y63.236 E.01682
G1 X166.768 Y56.13 E.31596
G1 X166.233 Y56.13 E.01682
G1 X173.874 Y63.771 E.33975
G1 X173.874 Y64.305 E.01679
G1 X165.699 Y56.13 E.36349
G1 X165.164 Y56.13 E.01682
G1 X173.874 Y64.84 E.38728
G1 X173.874 Y65.375 E.01682
G1 X164.629 Y56.13 E.41106
G1 X164.094 Y56.13 E.01682
G1 X173.874 Y65.91 E.43485
G1 X173.874 Y66.444 E.01679
G1 X163.56 Y56.13 E.4586
G1 X163.025 Y56.13 E.01682
G1 X173.874 Y66.979 E.48238
G1 X173.874 Y67.514 E.01682
G1 X162.49 Y56.13 E.50617
G1 X161.955 Y56.13 E.01682
G1 X173.874 Y68.048 E.52994
G1 X173.874 Y68.583 E.01682
G1 X161.421 Y56.13 E.5537
G1 X160.886 Y56.13 E.01682
G1 X173.874 Y69.118 E.57749
G1 X173.874 Y69.653 E.01682
G1 X160.351 Y56.13 E.60128
G1 X159.816 Y56.13 E.01682
G1 X173.874 Y70.187 E.62504
G1 X173.874 Y70.722 E.01682
G1 X159.282 Y56.13 E.64881
G1 X158.747 Y56.13 E.01682
M73 P2 R76
M73 Q2 S76
G1 X173.874 Y71.257 E.6726
G1 X173.874 Y71.792 E.01682
G1 X158.212 Y56.13 E.69639
G1 X157.677 Y56.13 E.01682
G1 X173.874 Y72.326 E.72015
G1 X173.874 Y72.861 E.01682
G1 X157.142 Y56.13 E.74394
G1 X156.608 Y56.13 E.01679
G1 X173.874 Y73.396 E.76771
G1 X173.874 Y73.931 E.01682
G1 X156.073 Y56.13 E.79149
G1 X155.538 Y56.13 E.01682
G1 X173.874 Y74.465 E.81526
G1 X173.874 Y75 E.01682
G1 X155.003 Y56.13 E.83905
G1 X154.469 Y56.13 E.01679
G1 X173.874 Y75.535 E.86281
G1 X173.874 Y76.07 E.01682
G1 X153.934 Y56.13 E.8866
G1 X153.399 Y56.13 E.01682
G1 X173.874 Y76.604 E.91037
G1 X173.874 Y77.139 E.01682
G1 X152.864 Y56.13 E.93415
G1 X152.33 Y56.13 E.01679
G1 X173.874 Y77.674 E.95792
G1 X173.874 Y78.208 E.01679
G1 X151.795 Y56.13 E.98169
G1 X151.26 Y56.13 E.01682
M73 P2 R75
G1 X173.874 Y78.743 E1.00547
G1 X173.874 Y79.278 E.01682
G1 X150.725 Y56.13 E1.02926
G1 X150.191 Y56.13 E.01679
G1 X173.874 Y79.813 E1.05303
G1 X173.874 Y80.347 E.01679
G1 X149.656 Y56.13 E1.07679
G1 X149.121 Y56.13 E.01682
G1 X173.874 Y80.882 E1.10058
G1 X173.874 Y81.417 E.01682
M73 Q2 S75
G1 X148.586 Y56.13 E1.12437
G1 X148.052 Y56.13 E.01679
G1 X173.874 Y81.952 E1.14813
G1 X173.874 Y82.486 E.01679
G1 X147.517 Y56.13 E1.1719
G1 X146.982 Y56.13 E.01682
G1 X173.874 Y83.021 E1.19569
G1 X173.874 Y83.556 E.01682
G1 X146.447 Y56.13 E1.21948
G1 X145.913 Y56.13 E.01679
G1 X173.874 Y84.091 E1.24324
G1 X173.874 Y84.625 E.01679
G1 X145.378 Y56.129 E1.26703
G1 X144.843 Y56.129 E.01682
G1 X173.874 Y85.16 E1.29082
G1 X173.874 Y85.695 E.01682
G1 X144.308 Y56.129 E1.31461
G1 X143.773 Y56.129 E.01682
G1 X173.874 Y86.229 E1.33837
G1 X173.874 Y86.764 E.01682
M73 P3 R75
M73 Q3 S75
G1 X143.239 Y56.129 E1.36214
G1 X142.704 Y56.129 E.01682
G1 X173.874 Y87.299 E1.38593
G1 X173.874 Y87.834 E.01682
G1 X142.169 Y56.129 E1.40971
G1 X141.634 Y56.129 E.01682
G1 X173.874 Y88.368 E1.43348
G1 X173.874 Y88.903 E.01682
G1 X141.1 Y56.129 E1.45724
G1 X140.565 Y56.129 E.01682
G1 X173.874 Y89.438 E1.48103
G1 X173.874 Y89.973 E.01682
G1 X140.03 Y56.129 E1.50482
G1 X139.495 Y56.129 E.01682
G1 X173.874 Y90.507 E1.52859
G1 X173.874 Y91.042 E.01682
G1 X138.961 Y56.129 E1.55235
G1 X138.426 Y56.129 E.01682
G1 X173.874 Y91.577 E1.57614
G1 X173.874 Y92.112 E.01682
G1 X137.891 Y56.129 E1.59993
G1 X137.356 Y56.129 E.01682
G1 X173.874 Y92.646 E1.62369
G1 X173.874 Y93.181 E.01682
G1 X136.822 Y56.129 E1.64746
G1 X136.287 Y56.129 E.01682
M73 P3 R74
G1 X173.874 Y93.716 E1.67125
G1 X173.874 Y94.251 E.01682
G1 X135.752 Y56.129 E1.69503
G1 X135.217 Y56.129 E.01682
G1 X173.874 Y94.785 E1.7188
G1 X173.874 Y95.32 E.01682
M73 Q3 S74
G1 X134.683 Y56.129 E1.74257
G1 X134.148 Y56.129 E.01682
G1 X173.874 Y95.855 E1.76635
G1 X173.874 Y96.389 E.01679
M73 P4 R74
M73 Q4 S74
G1 X133.613 Y56.129 E1.79012
G1 X133.078 Y56.129 E.01682
G1 X173.874 Y96.924 E1.81391
G1 X173.874 Y97.459 E.01682
G1 X132.544 Y56.129 E1.83767
G1 X132.009 Y56.129 E.01682
G1 X173.874 Y97.994 E1.86146
G1 X173.874 Y98.528 E.01679
G1 X131.474 Y56.129 E1.88523
G1 X130.939 Y56.129 E.01682
G1 X173.874 Y99.063 E1.90902
G1 X173.874 Y99.598 E.01682
G1 X130.404 Y56.129 E1.9328
G1 X129.87 Y56.129 E.01679
G1 X173.874 Y100.133 E1.95657
G1 X173.874 Y100.667 E.01679
G1 X129.335 Y56.129 E1.98033
G1 X128.8 Y56.129 E.01682
G1 X173.874 Y101.202 E2.00412
G1 X173.874 Y101.737 E.01682
G1 X128.265 Y56.129 E2.02791
G1 X127.731 Y56.129 E.01679
G1 X173.874 Y102.272 E2.05168
G1 X173.874 Y102.806 E.01679
G1 X127.196 Y56.129 E2.07544
G1 X126.661 Y56.129 E.01682
G1 X173.874 Y103.341 E2.09923
G1 X173.874 Y103.876 E.01682
G1 X126.126 Y56.129 E2.12302
G1 X125.592 Y56.129 E.01679
M73 P5 R73
M73 Q5 S74
G1 X173.874 Y104.41 E2.14676
G1 X173.874 Y104.945 E.01682
G1 X125.057 Y56.129 E2.17055
G1 X124.522 Y56.129 E.01682
M73 Q5 S73
G1 X173.874 Y105.48 E2.19434
G1 X173.874 Y106.015 E.01682
G1 X123.987 Y56.128 E2.21815
G1 X123.453 Y56.128 E.01679
G1 X173.874 Y106.549 E2.24189
G1 X173.874 Y107.084 E.01682
G1 X122.918 Y56.128 E2.26568
G1 X122.383 Y56.128 E.01682
G1 X173.874 Y107.619 E2.28947
G1 X173.874 Y108.154 E.01682
G1 X121.848 Y56.128 E2.31325
G1 X121.314 Y56.128 E.01679
G1 X173.874 Y108.688 E2.337
G1 X173.874 Y109.223 E.01682
G1 X120.779 Y56.128 E2.36079
G1 X120.244 Y56.128 E.01682
G1 X173.874 Y109.758 E2.38457
G1 X173.874 Y110.293 E.01682
G1 X119.709 Y56.128 E2.40836
G1 X119.175 Y56.128 E.01679
G1 X173.874 Y110.827 E2.43211
G1 X173.874 Y111.362 E.01682
M73 P6 R73
M73 Q6 S73
G1 X118.64 Y56.128 E2.45589
G1 X118.105 Y56.128 E.01682
G1 X173.874 Y111.897 E2.47968
G1 X173.874 Y112.432 E.01682
G1 X117.57 Y56.128 E2.50347
G1 X117.035 Y56.128 E.01682
M73 P6 R72
G1 X173.874 Y112.966 E2.52723
G1 X173.874 Y113.501 E.01682
G1 X116.501 Y56.128 E2.551
G1 X115.966 Y56.128 E.01682
M73 Q6 S72
G1 X173.874 Y114.036 E2.57479
G1 X173.874 Y114.57 E.01679
G1 X115.431 Y56.128 E2.59855
G1 X114.896 Y56.128 E.01682
G1 X173.874 Y115.105 E2.62234
G1 X173.874 Y115.64 E.01682
G1 X114.362 Y56.128 E2.64611
G1 X113.827 Y56.128 E.01682
G1 X173.874 Y116.175 E2.6699
G1 X173.874 Y116.709 E.01679
G1 X113.292 Y56.128 E2.69366
G1 X112.757 Y56.128 E.01682
M73 P7 R72
M73 Q7 S72
G1 X173.874 Y117.244 E2.71745
G1 X173.874 Y117.779 E.01682
G1 X112.223 Y56.128 E2.74121
G1 X111.688 Y56.128 E.01682
G1 X173.874 Y118.314 E2.765
G1 X173.874 Y118.848 E.01679
G1 X111.153 Y56.128 E2.78877
G1 X110.618 Y56.128 E.01682
G1 X173.874 Y119.383 E2.81256
G1 X173.874 Y119.918 E.01682
G1 X110.084 Y56.128 E2.83632
G1 X109.549 Y56.128 E.01682
M73 P7 R71
G1 X173.874 Y120.453 E2.86011
G1 X173.874 Y120.987 E.01679
G1 X109.014 Y56.128 E2.88388
G1 X108.479 Y56.128 E.01682
M73 Q7 S71
G1 X173.874 Y121.522 E2.90766
G1 X173.874 Y122.057 E.01682
G1 X107.945 Y56.128 E2.93143
G1 X107.41 Y56.128 E.01682
G1 X173.874 Y122.591 E2.9552
G1 X173.874 Y123.126 E.01682
M73 P8 R71
M73 Q8 S71
G1 X106.875 Y56.128 E2.97898
G1 X106.34 Y56.128 E.01682
G1 X173.874 Y123.661 E3.00277
G1 X173.874 Y124.196 E.01682
G1 X105.806 Y56.128 E3.02654
G1 X105.271 Y56.128 E.01682
G1 X173.874 Y124.73 E3.0503
G1 X173.874 Y125.265 E.01682
G1 X104.736 Y56.128 E3.07409
G1 X104.201 Y56.128 E.01682
G1 X173.874 Y125.8 E3.09788
G1 X173.874 Y126.335 E.01682
G1 X103.666 Y56.128 E3.12167
G1 X103.132 Y56.128 E.01679
G1 X173.874 Y126.869 E3.14541
G1 X173.874 Y127.404 E.01682
M73 P8 R70
G1 X138.776 Y92.307 E1.56056
G1 X138.776 Y92.842 E.01682
G1 X173.874 Y127.939 E1.56056
G1 X173.874 Y128.474 E.01682
M73 P9 R70
M73 Q9 S70
G1 X138.776 Y93.376 E1.56058
G1 X138.776 Y93.911 E.01682
G1 X173.874 Y129.008 E1.56056
G1 X173.874 Y129.543 E.01682
G1 X138.776 Y94.446 E1.56056
G1 X138.776 Y94.981 E.01682
G1 X173.874 Y130.078 E1.56056
G1 X173.874 Y130.613 E.01682
G1 X138.776 Y95.515 E1.56058
G1 X138.776 Y96.05 E.01682
G1 X173.874 Y131.147 E1.56056
G1 X173.874 Y131.682 E.01682
G1 X138.776 Y96.585 E1.56056
G1 X138.776 Y97.12 E.01682
G1 X173.874 Y132.217 E1.56056
G1 X173.874 Y132.751 E.01679
G1 X138.776 Y97.654 E1.56056
G1 X138.776 Y98.189 E.01682
G1 X173.874 Y133.286 E1.56056
G1 X173.874 Y133.821 E.01682
G1 X138.776 Y98.724 E1.56056
G1 X138.776 Y99.259 E.01682
G1 X173.874 Y134.356 E1.56056
G1 X173.874 Y134.89 E.01679
G1 X138.776 Y99.793 E1.56056
G1 X138.776 Y100.328 E.01682
G1 X173.874 Y135.425 E1.56056
G1 X173.874 Y135.96 E.01682
G1 X138.776 Y100.863 E1.56056
G1 X138.776 Y101.397 E.01679
G1 X173.874 Y136.495 E1.56058
G1 X173.874 Y137.029 E.01679
G1 X138.776 Y101.932 E1.56056
G1 X138.776 Y102.467 E.01682
G1 X173.874 Y137.564 E1.56056
